X:1
T:Adios Nugoro amada
T:Adios Nugoro amada
T:Armonizz: B. Ruiu 1964
C:Banneddu Ruiu
%%score 1 2 3 4
L:1/8
M:3/4
K:Bb
V:1 treble-8 nm="Tenore" snm="T."
V:2 treble-8 nm="Tenore" snm="T."
V:3 bass nm="Baritono" snm="Bar."
V:4 bass nm="Basso" snm="B."
V:1
|: z4[Q:1/4=40]"^Andante" FF | d3 e cd | e2 !breath!e2 fe | d3 e dc | d2 !breath!d2 FF |: %5
w: A- di-|os Nu- go- r'a-|ma- da, pr'i- te|par- t'a ter- r'an-|ze- na. In cru-|
w: Ca est|ja ben- ni- da|s'o- ra, de par-|ti- re do- lo-|ro- sa. Ja de|
w: Cu- sta|par- ti- da for-|xa- da. mi be-|nit, bel- la Nu-|go- ro. In pren-|
 f3 _g ef | _g2 !breath!g2 fe | d3 e ee |1 d2 d2 FF :|2 d2 !fermata!d2 z2 |] %10
w: de- lis- si- ma|pe- na ti las-|so, ter- r'i- sti-|ma- da. In cru|ma- da.|
w: pur- pu- r'e de|ro- sa s'o- ri-|en- te si co-|lo- rat. Ja de|lo- rat.|
w: da pe- rò su|co- ro, ti las-|so, ter- r'i- sti-|ma- da. In pren|ma- da.|
V:2
|: z4 FF | B3 c AB | c2 !breath!c2 dc | B3 c BA | B2 !breath!B2 FF |: d3 e cd | e2 !breath!e2 =dc | %7
w: A- di-|os Nu- go- r'a-|ma- da, pr'i- te|par- t'a ter- r'an-|ze- na. In cru-|de- lis- si- ma|pe- na ti las-|
w: Ca est|ja ben- ni- da|s'o- ra, de par-|ti- re do- lo-|ro- sa. Ja de|pur- pu- r'e de|ro- sa s'o- ri-|
w: Cu- sta|par- ti- da for-|xa- da. mi be-|nit, bel- la Nu-|go- ro. In pren-|da pe- rò su|co- ro, ti las-|
 B3 c BA |1 B2 B2 z2 :|2 B2 !fermata!B2 z2 |] %10
w: so, ter- r'i- sti-|ma- da.|ma- da.|
w: en- te si co-|lo- rat.|lo- rat.|
w: so, ter- r'i- sti-|ma- da.|ma- da.|
V:3
|: z6 | F,F, F,E, F,F, | A,2 !breath!A,2 F,^F, | G,2 E,2 =F,F, | F,2 !breath!F,2 F,F, |: %5
w: |A- di- os Nu- go- r'a-|ma- da, pr'i- te|par- t'a ter- r'an-|ze- na. In cru-|
w: |Ca est ja ben- ni- da|s'o- ra, de par-|ti- re do- lo-|ro- sa. Ja de|
w: |Cu- sta par- ti- da for-|xa- da. mi be-|nit, bel- la Nu-|go- ro. In pren-|
 _A,3 A, A,A, | C2 !breath!C2 z2 | F,F, F,F, F,F, |1 F,2 F,2 z2 :|2 F,2 !fermata!F,2 z2 |] %10
w: de- lis- si- ma|pe- na|ti las- so, ter- r'i- sti-|ma- da.|ma- da.|
w: pur- pu- r'e de|ro- sa|s'o- ri- en- te si co-|lo- rat.|lo- rat.|
w: da pe- rò su|co- ro,|ti las- so, ter- r'i- sti-|ma- da.|ma- da.|
V:4
|: z6 | B,,B,, B,,E, C,B,, | [F,,F,]2 !breath![F,,F,]2 z2 | D,D, D,F,, F,,F,, | %4
w: |A- di- os Nu- go- r'a-|ma- da,|pr'i- te par- t'a ter- r'an-|
w: |Ca est ja ben- ni- da|s'o- ra,|de par- ti- re do- lo-|
w: |Cu- sta par- ti- da for-|xa- da.|mi be- nit, bel- la Nu-|
 B,,2 !breath!B,,2 F,F, |: _D,3 _G, E,D, | [_A,,_A,]2 !breath![A,,A,]2 z2 | B,,B,, B,,F,, F,,F,, |1 %8
w: ze- na. In cru-|de- lis- si- ma|pe- na|ti las- so, ter- r'i- sti-|
w: ro- sa. Ja de|pur- pu- r'e de|ro- sa|s'o- ri- en- te si co-|
w: go- ro. In pren-|da pe- rò su|co- ro,|ti las- so, ter- r'i- sti-|
 B,,2 B,,2 z2 :|2 B,,2 !fermata!B,,2 z2 |] %10
w: ma- da.|ma- da.|
w: lo- rat.|lo- rat.|
w: ma- da.|ma- da.|

